X: 3002
T: Hampton Court.
%R: minuet, waltz
B: Henry Playford "Apollo's Banquet", London 1687 (5th Edition)
F: https://archive.org/details/apollosbanquetco01rugg
Z: 2017 John Chambers <jc:trillian.mit.edu>
M: 3/4
L: 1/8
K: G
% - - - - - - - - - -
|:\
B4 (B/c/d) | B3 (A G2) |\
A4 (ed)  | A3 B c2 |\
B4 (gd) | B3 A G2 |\
A2 F2 (FG) | G6 ::\
f4 (f/g/a) | f3 e d2 |
g4 (g/a/b) | a3 g f2 |\
e2 e2 f2 | g2 G2 A2 |\
B2 b2 a2 | (g2 f2) g2 |\
e4 ^d2 | e2 B2 f2 |\
g2 (ag) (fe) | d2 A2 B2 |\
c2 (dc) (BA) | B2 G2 d2 |
(ed) (ef) (ge) | (fe) (fg) (af) |\
g6 | (ga) (ba) (gf) |\
(ef) (gf) (ed) | (Be) (dB) (AG) |\
G4 (AB) | HG6 |]
% - - - - - - - - - -

%%sep 1 1 500
%%sep 1 1 500

